flaticon/transportation/departures.svg

<svg xmlns="http://www.w3.org/2000/svg" width="32" height="32" viewBox="0 0 24 24">
    <path d="M23.722656 7.121094C23.058594 5.902344 21.703125 5.398438 20.097656 5.992188L14.257812 8.226562 9.632812 3.246094C9.042969 2.621094 8.015625 2.332031 7.277344 2.640625 5.59375 3.335938 5.273438 5.011719 6.277344 6.277344L9.660156 10.167969 5.726562 11.917969.648438 10.492188C.4375 10.433594.214844 10.515625.0898438 10.695312-.0351562 10.878906-.0273438 11.117188.101562 11.289062L5.101562 17.972656C5.3125 18.253906 5.621094 18.175781 5.71875 18.132812L22.308594 10.703125C23.339844 10.355469 24.558594 8.660156 23.722656 7.121094zM21.917969 9.761719L5.671875 17.035156 1.816406 11.882812 5.628906 12.949219C5.742188 12.980469 5.867188 12.972656 5.972656 12.921875L10.703125 10.820312C10.945312 10.722656 11.15625 10.355469 10.882812 10.019531L7.046875 5.605469C6.769531 5.285156 6.382812 4.128906 7.601562 3.613281 8.035156 3.429688 8.566406 3.601562 8.886719 3.941406L13.746094 9.171875C13.886719 9.324219 14.109375 9.375 14.300781 9.300781L20.496094 6.929688C21.777344 6.492188 22.539062 7.015625 22.804688 7.570312 23.371094 8.753906 22.363281 9.589844 21.917969 9.761719zM.511719 20.464844L23.476562 20.464844 23.476562 21.484375.511719 21.484375zM.511719 20.464844"/>
</svg>

<svg xmlns="http://www.w3.org/2000/svg" width="32" height="32" viewBox="0 0 24 24">
    <path d="M23.723 7.121c-.664-1.219-2.02-1.723-3.625-1.129l-5.84 2.235-4.625-4.98c-.59-.626-1.617-.915-2.356-.606-1.683.695-2.004 2.37-1 3.636l3.383 3.891-3.933 1.75-5.079-1.426a.512.512 0 0 0-.546.797l5 6.684c.21.28.52.203.617.16l16.59-7.43c1.03-.348 2.25-2.043 1.414-3.582zm-1.805 2.64L5.672 17.036l-3.856-5.152 3.813 1.066a.497.497 0 0 0 .344-.027l4.73-2.102a.506.506 0 0 0 .18-.8L7.047 5.605c-.277-.32-.664-1.476.555-1.992.433-.183.964-.011 1.285.328l4.86 5.23a.51.51 0 0 0 .554.13l6.195-2.371c1.281-.438 2.043.086 2.309.64.566 1.184-.442 2.02-.887 2.192zm0 0M.512 20.465h22.965v1.02H.512zm0 0"/>
</svg>
